assets/icons/sound fx - white.svg

<svg id="Layer_1" data-name="Layer 1" xmlns="http://www.w3.org/2000/svg" viewBox="0 0 100 100"><g id="Layer_1-2" data-name="Layer 1"><g id="Layer_1-3" data-name="Layer 1"><g id="Layer_1-4" data-name="Layer 1"><path d="M100,84a16,16,0,0,1-16,16H16A16,16,0,0,1,0,84V16A16,16,0,0,1,16,0H84a16,16,0,0,1,16,16Z" style="fill:#242a30"/></g></g></g><g id="Layer_2" data-name="Layer 2"><path d="M46,30.6A2.33,2.33,0,0,1,47.5,33V66.3a3.31,3.31,0,0,1-.5,2.4,2.48,2.48,0,0,1-3.3.5c-.9-.6-1-1.5-1-2.7V33.9c0-1.4,0-2.2,1-3a2.15,2.15,0,0,1,2.3-.3Z" style="fill:#fff"/><path d="M33.1,60.9a3.42,3.42,0,0,1-.2-1.5V40.5a2.72,2.72,0,0,1,.7-2,2.41,2.41,0,0,1,3-.3c1.3.8,1.1,1.9,1.1,3.5V60a1.75,1.75,0,0,1-.4,1.2,2.45,2.45,0,0,1-4.2-.3Z" style="fill:#fff"/><path d="M63.7,38a2.13,2.13,0,0,1,1.9-.1,2.61,2.61,0,0,1,1.5,2.6V59.4a4.14,4.14,0,0,1-.1,1,2.28,2.28,0,0,1-2.4,1.8,2.36,2.36,0,0,1-2.2-1.8c0-.2-.1-.5-.1-.8V40.4A2.59,2.59,0,0,1,63.7,38Z" style="fill:#fff"/><path d="M55.9,40.5a2.34,2.34,0,0,1,1.4,2.3V56.9a3.13,3.13,0,0,1-.4,1.9,2.54,2.54,0,0,1-4,0,3.57,3.57,0,0,1-.5-2.3V45a19.58,19.58,0,0,1,.1-3c0-.3.3-.6.6-1a2.32,2.32,0,0,1,2.8-.5Z" style="fill:#fff"/></g></svg>

<?xml version="1.0" encoding="utf-8"?>
<!-- Generator: Adobe Illustrator 24.3.0, SVG Export Plug-In . SVG Version: 6.00 Build 0)  -->
<svg version="1.1" xmlns="http://www.w3.org/2000/svg" xmlns:xlink="http://www.w3.org/1999/xlink" x="0px" y="0px"
	 viewBox="0 0 100 100" style="enable-background:new 0 0 100 100;" xml:space="preserve">
<style type="text/css">
	.st0{fill:#242A30;}
	.st1{display:none;}
	.st2{display:inline;}
	.st3{fill:#FFFFFF;}
</style>
<g id="Layer_1">
	<g id="Layer_1_2_">
		<g id="Layer_1_1_">
			<g>
				<path class="st0" d="M100,84c0,8.8-7.2,16-16,16H16c-8.8,0-16-7.2-16-16V16C0,7.2,7.2,0,16,0h68c8.8,0,16,7.2,16,16V84z"/>
			</g>
		</g>
		<g id="Layer_3">
		</g>
		<g id="Layer_4" class="st1">
			<g class="st2">
				<path class="st3" d="M50,56.9c3.8,0,6.9-3.1,6.9-6.9V38.5c0-3.8-3.1-6.9-6.9-6.9s-6.9,3.1-6.9,6.9V50
					C43.1,53.8,46.2,56.9,50,56.9z"/>
				<path class="st3" d="M61.5,50v-4.6h-2.3v4.3c0,4.4-3,8.5-7.3,9.4c-5.9,1.2-11.2-3.3-11.2-9v-4.6h-2.3V50c0,5.6,4,10.2,9.2,11.3
					v4.8H43v2.3h13.8v-2.3h-4.6v-4.8C57.6,60.2,61.5,55.6,61.5,50z"/>
			</g>
		</g>
	</g>
</g>
<g id="Layer_2">
	<g>
		<path class="st3" d="M46,30.6c1,0.4,1.5,1.2,1.5,2.4c0,11.1,0,22.2,0,33.3c0,0.9,0.1,1.7-0.5,2.4c-0.8,1-2.2,1.2-3.3,0.5
			c-0.9-0.6-1-1.5-1-2.7c0-10.9,0-21.7,0-32.6c0-1.4,0-2.2,1-3C44.4,30.3,45.2,30.3,46,30.6L46,30.6z"/>
		<path class="st3" d="M33.1,60.9c-0.2-0.3-0.2-1-0.2-1.5c0-6.3,0-12.6,0-18.9c0-0.8,0.2-1.5,0.7-2c0.8-0.8,2-0.9,3-0.3
			c1.3,0.8,1.1,1.9,1.1,3.5c0,6.1,0,12.2,0,18.3c0,0.4-0.1,0.9-0.4,1.2C36.3,62.7,34,62.6,33.1,60.9L33.1,60.9z"/>
		<path class="st3" d="M63.7,38c0.6-0.3,1.3-0.4,1.9-0.1c1,0.5,1.5,1.3,1.5,2.6c0,9.6,0,15.9,0,18.9c0,0.2,0,0.6-0.1,1
			c-0.1,1.1-1.4,1.9-2.4,1.8c-1-0.1-2.1-0.8-2.2-1.8c0-0.2-0.1-0.5-0.1-0.8c0-6.4,0-12.8,0-19.2C62.3,39.3,62.8,38.5,63.7,38
			L63.7,38z"/>
		<path class="st3" d="M55.9,40.5c0.9,0.4,1.4,1.2,1.4,2.3c0,4.7,0,9.4,0,14.1c0,0.7,0,1.3-0.4,1.9c-1,1.3-2.9,1.3-4,0
			c-0.5-0.6-0.5-1.5-0.5-2.3c0-3.8,0-7.7,0-11.5c0-1.6,0-2.6,0.1-3c0-0.3,0.3-0.6,0.6-1C54,40.2,54.9,40,55.9,40.5L55.9,40.5z"/>
	</g>
</g>
</svg>
